packages/assets/static/images/icons/gas-pump.svg

<svg width="24" height="24" viewBox="0 0 24 24" xmlns="http://www.w3.org/2000/svg">
<path d="M21.8438 6.53063L20.0306 4.71938C19.8899 4.57864 19.699 4.49958 19.5 4.49958C19.301 4.49958 19.1101 4.57864 18.9694 4.71938C18.8286 4.86011 18.7496 5.05098 18.7496 5.25C18.7496 5.44902 18.8286 5.63989 18.9694 5.78062L20.7806 7.59375C20.9206 7.73383 20.9994 7.92356 21 8.12156V15.75C21 15.9489 20.921 16.1397 20.7803 16.2803C20.6397 16.421 20.4489 16.5 20.25 16.5C20.0511 16.5 19.8603 16.421 19.7197 16.2803C19.579 16.1397 19.5 15.9489 19.5 15.75V12C19.5 11.4033 19.2629 10.831 18.841 10.409C18.419 9.98705 17.8467 9.75 17.25 9.75H15.75V5.25C15.75 4.65326 15.5129 4.08097 15.091 3.65901C14.669 3.23705 14.0967 3 13.5 3H6C5.40326 3 4.83097 3.23705 4.40901 3.65901C3.98705 4.08097 3.75 4.65326 3.75 5.25V19.5H2.25C2.05109 19.5 1.86032 19.579 1.71967 19.7197C1.57902 19.8603 1.5 20.0511 1.5 20.25C1.5 20.4489 1.57902 20.6397 1.71967 20.7803C1.86032 20.921 2.05109 21 2.25 21H17.25C17.4489 21 17.6397 20.921 17.7803 20.7803C17.921 20.6397 18 20.4489 18 20.25C18 20.0511 17.921 19.8603 17.7803 19.7197C17.6397 19.579 17.4489 19.5 17.25 19.5H15.75V11.25H17.25C17.4489 11.25 17.6397 11.329 17.7803 11.4697C17.921 11.6103 18 11.8011 18 12V15.75C18 16.3467 18.2371 16.919 18.659 17.341C19.081 17.7629 19.6533 18 20.25 18C20.8467 18 21.419 17.7629 21.841 17.341C22.2629 16.919 22.5 16.3467 22.5 15.75V8.12156C22.5011 7.82618 22.4437 7.5335 22.3311 7.26043C22.2184 6.98736 22.0528 6.73931 21.8438 6.53063ZM5.25 19.5V5.25C5.25 5.05109 5.32902 4.86032 5.46967 4.71967C5.61032 4.57902 5.80109 4.5 6 4.5H13.5C13.6989 4.5 13.8897 4.57902 14.0303 4.71967C14.171 4.86032 14.25 5.05109 14.25 5.25V19.5H5.25ZM12.75 10.5C12.75 10.6989 12.671 10.8897 12.5303 11.0303C12.3897 11.171 12.1989 11.25 12 11.25H7.5C7.30109 11.25 7.11032 11.171 6.96967 11.0303C6.82902 10.8897 6.75 10.6989 6.75 10.5C6.75 10.3011 6.82902 10.1103 6.96967 9.96967C7.11032 9.82902 7.30109 9.75 7.5 9.75H12C12.1989 9.75 12.3897 9.82902 12.5303 9.96967C12.671 10.1103 12.75 10.3011 12.75 10.5Z"/>
</svg>

<svg viewBox="0 0 24 24" xmlns="http://www.w3.org/2000/svg" aria-hidden="true" fill="currentColor"><path d="M21.844 6.53 20.03 4.72a.75.75 0 1 0-1.062 1.06l1.812 1.814c.14.14.218.33.219.528v7.628a.75.75 0 1 1-1.5 0V12a2.25 2.25 0 0 0-2.25-2.25h-1.5v-4.5A2.25 2.25 0 0 0 13.5 3H6a2.25 2.25 0 0 0-2.25 2.25V19.5h-1.5a.75.75 0 1 0 0 1.5h15a.75.75 0 1 0 0-1.5h-1.5v-8.25h1.5A.75.75 0 0 1 18 12v3.75a2.25 2.25 0 0 0 4.5 0V8.122a2.24 2.24 0 0 0-.656-1.591M5.25 19.5V5.25A.75.75 0 0 1 6 4.5h7.5a.75.75 0 0 1 .75.75V19.5zm7.5-9a.75.75 0 0 1-.75.75H7.5a.75.75 0 1 1 0-1.5H12a.75.75 0 0 1 .75.75"/></svg>
